X:123
T:Beaunapartes March Primo. Le4.123
M:C|
L:1/8
Q:1/4=100
B:L.Leadley MS#4 c1850
Z:Village Music Project, 2016 Ruairidh Greig
K:G
B4c4|d2d>d d2 cB|c2c>cc2 d>e|d2>c2B2z/ (D/E//F// G//A//B//c//)|
B4 B(c/B/) AG|c4cd/c/ BA|(Bc^cd) ^de^cA|G4 (F//D//E//F// G//A//B//c//)|
B4c4| d2d>d d2cB|c2c>cc2d>e|d2>c2B2z/ (D/E//F// G//A//B//c//)|
B4 Bc/B/ AG|c4 c(d/c/) BA|d2 (3e/c/A/ G2F2|GG/G/ GG GDGB|
.G.D.G.B .G.D.G.B|.B.B/.B/ .B.B .B.G.B.d|.B.G.B.d .B.G.B.d|g4d2>c2|
GG Bd gBdB|cAag fadf|g3 (f/e/) dd (e/d/c/B/)|c>cB/ (A>AG/) F2z2|
a3 (a/a/) ff (g/f/e/d/)|g3(g/f/) gb gbgf|ee/^d/ eg ege=d|^ceeg fedc|
d3 (f>e) d(f/e/) d(f/e/)|d3(a/g/) fa/g/ fa/g/|.f.A.d.f .d.A.d.f|d4d4|1d4d^dec:|2d4z4||
B4B4|B.B/.B/.B/.B/ .B.B.B.B|.B.B/.B/ .B.B .B.B.B.B|BB/B/ B>B B2z2|
f4f4|ff/f/ ff .f.f.f.f| ff/f/ ff .f.f.f.f|ff/f/ ff f2 B>c|
e>dd4e>f|g>dB4c>d|c2d>c BABc|A4z2A>B|
c4 d>c B/A/G/F/|d4 {ed}cBAG|a2>g2 fedc|B4 ABc^c|
(e>d)d4e>f|g>dB4 c>d|c2d>c BABc|A4z2A>B|
c4{dc}BAGF|d4{ed}cBAG|g3G GAdc|c4B2A>B|
c4{dc}BAGF|d4{c}cdef|g3d^c=cA|G4z2B>c|
.d2.g2.b2.g2|d6(c//B//A//G//)|.F2.A2.c2.F2|G4z2B>c|
.d2.g2.b2.g2|d6 (c//B//A//G//)|.F2.A2.c2.F2|.G.g.f.e .d.c.B.A|
.G.A.B.c .d.e.f.g|.G2.B2.c2.^c2|.d2.e2.d2.f2|gg/g/ gg gdgb|
gg/g/ .g.g .g.d.g.b|gdgb gdgb|g4g4| g4z2H:|

